X:1
T:Title
%%score { ( 1 3 ) | ( 2 4 ) }
L:1/8
M:3/4
K:F
V:1 treble nm="Grand Piano"
V:3 treble 
V:2 bass 
V:4 bass 
V:1
 z2 z[Q:1/4=90] C C>F | A3 G F>A | c4 c2 | d3 c B>A |[M:3/8] [EG]3 | CC>F |[M:3/4] A3 G F>A | %7
 c4 [CFc]2 | [Fd]3 [CFc] [CEB]>[B,CG] |[M:2/4] [F,A,CF]4 |[M:4/4] F>A c2 c>c c2 |[M:3/4] z2 e4- | %12
[M:1/4] e2 | (3edc |[M:4/4] B2 [EGB]2 [EGB]2 (3dcB | A6 z2 | [Af]4 [Fc]2 [FA]2 | %17
 [Fd]>[F^c] [Fd]>[DFB] [DFG]2 [Fd]2 | [Fd]2 [Ec]2 [Dc]2 E2 |[M:3/4] F6 |] %20
V:2
 z2 z [F,A,] [F,A,]>[F,A,C] | [F,CF]3 [F,B,C] [F,A,C]>[K:treble][F,CF] | [F,A,F]4 [A,CF]2 | %3
 [B,F]3 [A,CF][K:bass] [G,CE]>[F,CF] |[M:3/8] [C,C]3 | [F,A,][F,A,]>[F,A,C] | %6
[M:3/4] [F,CF]3 [F,B,C] [F,A,C]>[F,CF] | [F,A,F]4 A,,2 | [B,,B,]3 A,, G,,>C, |[M:2/4] F,,4 | %10
[M:4/4] [F,A,C]>[F,CF] [F,A,F]2 [F,A,F]>[F,A,F] [F,A,F]2 |[M:3/4] z2[K:treble] C4- |[M:1/4] C2 | %13
 (3cBA |[M:4/4] G2[K:bass] C,2 C,2[K:treble] (3BAG | F6[K:bass] z2 | [F,C]4 [F,A,]2 [F,C]2 | %17
 [B,,B,]>[B,,B,] [B,,B,]>B,, B,,2 [=B,,G,]2 | [C,G,]4 [C,B,]2 [C,B,C]2 |[M:3/4] [F,A,C]6 |] %20
V:3
 x6 | x6 | x6 | x6 |[M:3/8] x3 | x3 |[M:3/4] x6 | x6 | x6 |[M:2/4] x4 |[M:4/4] x8 | %11
[M:3/4] (3Acf z2 (3BBB |[M:1/4] B2 | x2 |[M:4/4] x8 | z2 (3CCC C2 [CAc]2 | x8 | x8 | x8 | %19
[M:3/4] x6 |] %20
V:4
 x6 | x11/2[K:treble] x/ | x6 | x4[K:bass] x2 |[M:3/8] x3 | x3 |[M:3/4] x6 | x6 | x6 |[M:2/4] x4 | %10
[M:4/4] x8 |[M:3/4] (3A,[K:treble]CF z2 (3G,G,G, |[M:1/4] G,2 | x2 | %14
[M:4/4] x2[K:bass] x4[K:treble] x2 | z2[K:bass] (3F,F,F, F,2 F,2 | x8 | x8 | x8 |[M:3/4] x6 |] %20

